X:1
T:Durango
M:3/4
L:1/4
K:C
 G| B B B| B G B| d A A| A2 d| d3/2 e/2 d| d B A| G- B A| G2 A| B B B|\
 B G G/2B/2| d A A| A2 B/2c/2| d3/2 d/2 e| d B B/2A/2| G B A| G2||\
